packages/kaspersky-hexa-ui-icons/src/iconsSVGs/48/AutoCar.svg

<svg xmlns="http://www.w3.org/2000/svg" width="48" height="48" fill="none" viewBox="0 0 48 48"><path fill="currentColor" fill-rule="evenodd" d="M36.562 29c-.46 0-.858-.312-.971-.757L35.282 27H41l.002 2zM41 25h-5.718c-.62 0-1.195.28-1.576.769a1.986 1.986 0 0 0-.365 1.715l.311 1.245A2.996 2.996 0 0 0 36.562 31H41c1.103 0 2-.897 2-2v-2c0-1.103-.897-2-2-2m-28.59 3.242a1.001 1.001 0 0 1-.971.758H7v-2h5.72zM12.719 25H7c-1.102 0-2 .897-2 2v2c0 1.103.898 2 2 2h4.439c1.379 0 2.576-.935 2.91-2.272l.312-1.244c.149-.601.016-1.227-.366-1.715-.381-.489-.956-.769-1.576-.769M43 19h3v-1h-3zm1 12c0 .552-.448 1-1 1H31v-2H17v2H5c-.551 0-1-.448-1-1v-5c0-1.565.749-3.061 2.001-4l1.034-.775 1.403.935c.823.55 1.782.84 2.773.84H36.79c.991 0 1.95-.29 2.773-.84l1.403-.935L42 22c1.252.939 2 2.435 2 4zm-1 4H31v-1h12c.353 0 .686-.072 1-.185V34c0 .552-.448 1-1 1m-2 3h-1v2h1.002v1H36v-1h1v-2h-1v-1h5zm-22-3h10v-3H19zM5 35c-.551 0-1-.448-1-1v-.185c.315.113.648.185 1 .185h12v1zm7 3h-1v2h1.002v1H7v-1h1v-2H7v-1h5zM2 19h3v-1H2zm8.983-7.025c.43-1.182 1.562-1.975 2.819-1.975h20.397c1.257 0 2.389.793 2.819 1.975l2.775 7.629-1.339.892c-.495.33-1.07.504-1.664.504H11.211c-.594 0-1.17-.174-1.664-.504l-1.339-.892zM46 16h-3c-.882 0-1.626.58-1.89 1.376l-2.213-6.085C38.182 9.322 36.293 8 34.199 8H13.802c-2.094 0-3.983 1.322-4.698 3.291l-2.213 6.085C6.626 16.58 5.883 16 5 16H2c-1.102 0-2 .897-2 2v1c0 1.103.898 2 2 2h2.111C2.779 22.307 2 24.115 2 26v8c0 1.654 1.346 3 3 3v4c0 1.103.898 2 2 2h5c1.103 0 2-.897 2-2v-4h20v4c0 1.103.898 2 2 2h5c1.103 0 2-.897 2-2v-4c1.655 0 3-1.346 3-3v-8c0-1.885-.777-3.693-2.109-5H46c1.103 0 2-.897 2-2v-1c0-1.103-.897-2-2-2" clip-rule="evenodd"/></svg>

<svg width="48" height="48" viewBox="0 0 48 48" fill="none" xmlns="http://www.w3.org/2000/svg">
<path fill-rule="evenodd" clip-rule="evenodd" d="M36.562 29C36.102 29 35.704 28.688 35.591 28.243L35.282 27H41L41.002 29H36.562ZM41 25H35.282C34.662 25 34.087 25.28 33.706 25.769C33.324 26.257 33.191 26.883 33.341 27.484L33.652 28.729C33.986 30.065 35.183 31 36.562 31H41C42.103 31 43 30.103 43 29V27C43 25.897 42.103 25 41 25ZM12.41 28.242C12.297 28.688 11.899 29 11.439 29H7V27H12.72L12.41 28.242ZM12.719 25H7C5.898 25 5 25.897 5 27V29C5 30.103 5.898 31 7 31H11.439C12.818 31 14.015 30.065 14.349 28.728L14.661 27.484C14.81 26.883 14.677 26.257 14.295 25.769C13.914 25.28 13.339 25 12.719 25ZM43 19H46V18H43V19ZM44 31C44 31.552 43.552 32 43 32H31V30H17V32H5C4.449 32 4 31.552 4 31V26C4 24.435 4.749 22.939 6.001 22L7.035 21.225L8.438 22.16C9.261 22.71 10.22 23 11.211 23H36.79C37.781 23 38.74 22.71 39.563 22.16L40.966 21.225L42 22C43.252 22.939 44 24.435 44 26V31ZM43 35H31V34H43C43.353 34 43.686 33.928 44 33.815V34C44 34.552 43.552 35 43 35ZM41 38H40V40H41.002V41H36V40H37V38H36V37H41V38ZM19 35H29V32H19V35ZM5 35C4.449 35 4 34.552 4 34V33.815C4.315 33.928 4.648 34 5 34H17V35H5ZM12 38H11V40H12.002V41H7V40H8V38H7V37H12V38ZM2 19H5V18H2V19ZM10.983 11.975C11.413 10.793 12.545 10 13.802 10H34.199C35.456 10 36.588 10.793 37.018 11.975L39.793 19.604L38.454 20.496C37.959 20.826 37.384 21 36.79 21H11.211C10.617 21 10.041 20.826 9.547 20.496L8.208 19.604L10.983 11.975ZM46 16H43C42.118 16 41.374 16.58 41.11 17.376L38.897 11.291C38.182 9.322 36.293 8 34.199 8H13.802C11.708 8 9.819 9.322 9.104 11.291L6.891 17.376C6.626 16.58 5.883 16 5 16H2C0.898 16 0 16.897 0 18V19C0 20.103 0.898 21 2 21H4.111C2.779 22.307 2 24.115 2 26V34C2 35.654 3.346 37 5 37V41C5 42.103 5.898 43 7 43H12C13.103 43 14 42.103 14 41V37H34V41C34 42.103 34.898 43 36 43H41C42.103 43 43 42.103 43 41V37C44.655 37 46 35.654 46 34V26C46 24.115 45.223 22.307 43.891 21H46C47.103 21 48 20.103 48 19V18C48 16.897 47.103 16 46 16Z"  fill="currentColor"/>
</svg>
